img/price_white.svg

<svg width="7" height="8" viewBox="0 0 7 8" fill="none" xmlns="http://www.w3.org/2000/svg">
<path d="M3.64408 4.98828C5.24028 4.98828 6.15385 3.97656 6.15385 2.51172C6.15385 1.09766 5.26065 0 3.64408 0H1.02224V3.79688H0V4.98828H1.02224V5.58203H0V6.77344H1.02224V8H2.27882V6.77344H3.8037V5.58203H2.27882V4.98828H3.64408ZM2.27882 3.79688V1.20313H3.64408C4.48973 1.20313 4.89726 1.77344 4.89387 2.52344C4.89726 3.28906 4.49652 3.79688 3.61691 3.79688H2.27882Z" fill="white"/>
</svg>

<svg width="7" height="8" viewBox="0 0 7 8" fill="none" xmlns="http://www.w3.org/2000/svg"><path d="M3.644 4.988c1.596 0 2.51-1.011 2.51-2.476C6.154 1.098 5.26 0 3.644 0H1.022v3.797H0v1.191h1.022v.594H0v1.191h1.022V8H2.28V6.773h1.525V5.582H2.279v-.594h1.365zM2.28 3.797V1.203h1.365c.846 0 1.253.57 1.25 1.32.003.766-.397 1.274-1.277 1.274H2.279z" fill="#fff"/></svg>
